X: 1470
T: Nevâ Taksim
C: Tanburî Cemil Bey
O: Turkey
F: http://compmusic.upf.edu/node/140
N: neva--taksim--serbest----tanburi_cemil_bey
N: makam= neva
N: form= taksim
N: usul= serbest = 0/1
M: 0/1
L: 1/16
K: C _2/4B ^3/4f  
Q: 1/4=72
%%MIDI tuningsystem comma53
A4 =f3 e d3/2 e/ d2 e2 f e  | d e2 e2 d2 c2 d2 c c d4 z4 z4 z4 e2 =f2 g g f e d c2 _1/4B2 c2 d2 c2  | 
w:   |   | 
d2 e2 d c c3/2 _1/4B/ B c A2 z2 B3 A B2 B3 A G2 A2 G2 z2  | \
w:   | 
z4 e ^f g a2 g a2 g f e4 z4 e3 =b a4 a a  | 
w:   | 
g2 ^f2 e f g a f g3 g3 f  | e2 e/ ^1/4f/ e/ d/ e f3/2 e/ d/ z/ e z d z d4  | 
w:   |   | 
d3 c _1/4B A3 B2 c2 d2 c2  | e2 d2 d2 d d4 e3 d d4 d2 d2 d2 d d d d d d d  | 
w:   |   | 
d d4 z4 z4 e2 e  | ^f g a g2 a g f f e d2 e3/2 f/ d2  | \
w:   |   | 
d4 z4 e ^f g e f4  | 
w:   | 
e3/2 ^f/ g/ a3/2 a g f3/2 e/ f2 e z g a2 g  | \
w:   | 
^f3/2 e/ d2 e/ f/ e/ d/ e/ f/ d4 z4 z4 z4 z4 c2 d' _1/4b a  | 
w:   | 
a g ^f e f e f g f f f f f f f f  | \
w:   | 
^f f f f f g g g g g g f f f f f  | 
w:   | 
^f f g f g f g a g2 a2 _1/4b2 a2  | \
w:   | 
_1/4b2 a2 b2 a2 b2 a2 a2 =b2  | a2 g g ^f f e e2 f2 g2 a4 a2 g g3 f f e e f e f e4 g4 a4 g g2 =f e2  | 
w:   |   | 
e d3 d4 c c2 d c4  | d4 c4 d4 c g2 g2 g g g g g2 =f2 f2 e2 e2 d  | 
w:   |   | 
d2 c c2 d4 e2 d2 g g2  | ^f e2 d2 d2 e2 d3 c _1/4B2 c4 z4 G/ z/ A B c e e =f e d  | 
w:   |   | 
e d c _1/4B c B c d2 c2 c z c2 z2 z4 z4 z4 c2 B  | \
w:   | 
c _1/4B B2 c d d4 c2 d2 c2  | 
w:   | 
_1/4B2 A2 A2 A4 A2 A2 A2  | A2 A2 d2 d e d ^c e4 A2  | \
w:   |   | 
d2 d2 c2 d2 e2 d2 e2 ^1/4f2  | 
w:   | 
e2 ^1/4f2 g3/2 a/ g2 a2 a g g2 =f2  | \
w:   | 
=f2 e2 e2 d2 d2 c2 d2 e2  | ^f2 e2 g/ g f/ e2 e2 d2 d c c _1/4B  | 
w:   |   | 
_1/4B A A G A3 B c d e =f g e d e  | \
w:   | 
c e2 d2 _1/4B2 A2 B2 A2 B2 c2 B4 A B A G G G G z2 A4 z8 z4 z4 z4 g g ^f a2 a2 a2 a  | 
w:   | 
a2 a a2 a a2 a/ _1/4b/ a/ g/ a2 a2 a2  | \
w:   | 
a2 a2 a2 a4 z4 z4 d3/2 e/ ^f g a _1/4b c' a z2 z2 f2  | 
w:   | 
g ^f e f f f e d4 z2 z2 e  | ^f g2 f e d2 d2 a4 g =f e  | 
w:   |   | 
d e =f g2 e d e d e2 d4 _1/4B2 z2 c/ d/ c B A2 A2 g g g ^f2 g2 a2 g2 a a2 a2 a2 a2 a2  | 
w:   | 
a2 a2 a2 a2 c'2 c' _b2 b2 c'2 b2 c'2 b2 c'2 b2 c'2 b2 _1/4b2 b2 b2 b2 b2 a2 b2 a2 b2 a2 _e'4 e' e' e' e' z c' c' z b  | 
w:   | 
_1/4b z a a g2 g2 a3 g2 =f f g2 a2 g2 a3/2 g/ a2 a3/2 g/ f f e2 f3/2 e/ f g e4 f3/2 e/ d2 e4 d3 ^c d4 z4 z4 e2 _b2 a2 g2 f2 e2 f2 f2 e2 f2 g2 a2 a2 g2 f2 e2 f2 e2 d2 d2 e2 e d =c c c d d2 c2 d4 c/ d e ^1/4f g g f e d c _1/4B c2 c2 e2 d c c c d c2 g2 g2 ^f2 f2 e2 e e f g a2 g f2 e2 d2 e3/2 d/ e =f d4 c2 d2 e2 f2 d4 e2 f2 g2 a2 g2 g2 f2 e2 d4 c2 d2 e2 g2 d2 c4 e4 c2 B2 B/ A/ B c2 d4 c B A A2 A G A4 A4 A4 A4 g2 ^f g a _1/4b c' c' c'2 b a g f e e/ d3/2 d/ c3/2 c c B2 A2 B2 c2 d2 c2 c4 c2 B4 B/ A3/2 A8 z4 |
w:   | 


